packages/graphiql-react/src/icons/star.svg

<svg
  height="1em"
  viewBox="0 0 14 14"
  fill="none"
  xmlns="http://www.w3.org/2000/svg"
>
  <path
    d="M6.5782 1.07092C6.71096 0.643026 7.28904 0.643027 7.4218 1.07092L8.59318 4.84622C8.65255 5.03758 8.82284 5.16714 9.01498 5.16714L12.8056 5.16714C13.2353 5.16714 13.4139 5.74287 13.0663 6.00732L9.99962 8.34058C9.84418 8.45885 9.77913 8.66848 9.83851 8.85984L11.0099 12.6351C11.1426 13.063 10.675 13.4189 10.3274 13.1544L7.26069 10.8211C7.10524 10.7029 6.89476 10.7029 6.73931 10.8211L3.6726 13.1544C3.32502 13.4189 2.85735 13.063 2.99012 12.6351L4.16149 8.85984C4.22087 8.66848 4.15582 8.45885 4.00038 8.34058L0.933671 6.00732C0.586087 5.74287 0.764722 5.16714 1.19436 5.16714L4.98502 5.16714C5.17716 5.16714 5.34745 5.03758 5.40682 4.84622L6.5782 1.07092Z"
    stroke="currentColor"
    stroke-width="1.5"
  />
</svg>

<svg xmlns="http://www.w3.org/2000/svg" height="1em" fill="none" viewBox="0 0 14 14">
  <path stroke="currentColor" stroke-width="1.5" d="M6.578 1.07a.438.438 0 0 1 .844 0l1.171 3.776c.06.192.23.321.422.321h3.79c.43 0 .609.576.261.84L10 8.341a.48.48 0 0 0-.161.519l1.17 3.775c.134.428-.334.784-.682.52L7.261 10.82a.43.43 0 0 0-.522 0l-3.066 2.333c-.348.265-.816-.091-.683-.519L4.161 8.86a.48.48 0 0 0-.16-.52L.933 6.008c-.348-.264-.17-.84.26-.84h3.791c.192 0 .362-.13.422-.32z"/>
</svg>
